; generated by PrusaSlicer 2.0.0+win64 on 2020-01-25 at 18:17:36

; 

; external perimeters extrusion width = 0.45mm
; perimeters extrusion width = 0.45mm
; infill extrusion width = 0.45mm
; solid infill extrusion width = 0.45mm
; top infill extrusion width = 0.40mm
; first layer extrusion width = 0.60mm

M107
M190 S65 ; set bed temperature and wait for it to be reached
M104 S225 ; set temperature
G28 ; home all axes
G1 Z5 F5000 ; lift nozzle
; Filament gcode
M109 S225 ; set temperature and wait for it to be reached
G21 ; set units to millimeters
G90 ; use absolute coordinates
M82 ; use absolute distances for extrusion
G92 E0
G1 Z0.300 F7800.000
G1 E-2.00000 F2400.00000
G92 E0
G1 X78.713 Y69.014 F7800.000
G1 E2.00000 F2400.00000
G1 F1800
G1 X80.133 Y68.454 E2.10196
G1 X81.579 Y68.232 E2.19971
G1 X138.150 Y68.226 E5.97893
G1 X139.379 Y68.341 E6.06140
G1 X140.575 Y68.685 E6.14456
G1 X141.679 Y69.241 E6.22712
G1 X142.689 Y70.017 E6.31221
G1 X143.518 Y70.950 E6.39559
G1 X144.183 Y72.072 E6.48274
G1 X144.610 Y73.271 E6.56778
G1 X144.797 Y74.474 E6.64913
G1 X144.810 Y145.218 E11.37517
G1 X144.713 Y146.244 E11.44404
G1 X144.458 Y147.248 E11.51326
G1 X144.045 Y148.209 E11.58308
G1 X143.507 Y149.067 E11.65080
G1 X142.476 Y150.175 E11.75185
G1 X141.227 Y151.018 E11.85255
G1 X139.771 Y151.572 E11.95660
G1 X138.279 Y151.773 E12.05715
G1 X81.721 Y151.773 E15.83558
G1 X80.700 Y151.673 E15.90410
G1 X79.698 Y151.415 E15.97321
G1 X78.750 Y151.006 E16.04221
G1 X77.896 Y150.469 E16.10958
G1 X76.788 Y149.439 E16.21066
G1 X75.942 Y148.184 E16.31177
G1 X75.389 Y146.723 E16.41613
G1 X75.190 Y145.223 E16.51719
G1 X75.190 Y74.782 E21.22303
G1 X75.287 Y73.756 E21.29192
G1 X75.542 Y72.752 E21.36108
G1 X75.955 Y71.791 E21.43094
G1 X76.493 Y70.933 E21.49864
G1 X77.496 Y69.849 E21.59731
G1 X78.663 Y69.048 E21.69188
G1 E19.69188 F2400.00000
G92 E0
G1 X137.172 Y144.135 F7800.000
G1 E2.00000 F2400.00000
G1 F1800
G1 X82.828 Y144.135 E5.63050
G1 X82.828 Y75.865 E10.19134
G1 X137.172 Y75.865 E13.82183
G1 X137.172 Y144.075 E18.37867
G1 X137.708 Y144.671 F7800.000
G1 F1800
G1 X82.292 Y144.671 E22.08073
G1 X82.292 Y75.329 E26.71313
G1 X137.708 Y75.329 E30.41519
G1 X137.708 Y144.611 E35.04359
G1 X138.243 Y145.207 F7800.000
G1 F1800
G1 X81.757 Y145.207 E38.81721
G1 X81.757 Y74.794 E43.52118
G1 X138.243 Y74.794 E47.29481
G1 X138.243 Y145.147 E51.99477
G1 X137.861 Y145.089 F7800.000
G1 E49.99477 F2400.00000
G92 E0
G1 X82.988 Y142.891 F7800.000
G1 E2.00000 F2400.00000
G1 F1800
G1 X83.831 Y143.734 E2.07971
G1 X84.590 Y143.734 E2.13042
G1 X83.230 Y142.374 E2.25904
G1 X83.230 Y141.615 E2.30975
G1 X85.348 Y143.734 E2.51009
G1 X86.106 Y143.734 E2.56079
G1 X83.230 Y140.857 E2.83284
G1 X83.230 Y140.099 E2.88355
G1 X86.864 Y143.734 E3.22731
G1 X87.623 Y143.734 E3.27801
G1 X83.230 Y139.341 E3.69348
G1 X83.230 Y138.582 E3.74419
G1 X88.381 Y143.734 E4.23137
G1 X89.139 Y143.734 E4.28208
G1 X83.230 Y137.824 E4.84097
G1 X83.230 Y137.066 E4.89168
G1 X89.897 Y143.734 E5.52228
G1 X90.656 Y143.734 E5.57299
G1 X83.230 Y136.307 E6.27531
G1 X83.230 Y135.549 E6.32601
G1 X91.414 Y143.734 E7.10004
G1 X92.172 Y143.734 E7.15075
G1 X83.230 Y134.791 E7.99649
G1 X83.230 Y134.033 E8.04719
G1 X92.930 Y143.734 E8.96464
G1 X93.689 Y143.734 E9.01535
G1 X83.230 Y133.274 E10.00451
G1 X83.230 Y132.516 E10.05522
G1 X94.447 Y143.734 E11.11609
G1 X95.205 Y143.734 E11.16679
G1 X83.230 Y131.758 E12.29938
G1 X83.230 Y131.000 E12.35008
G1 X95.963 Y143.734 E13.55438
G1 X96.722 Y143.734 E13.60509
G1 X83.230 Y130.241 E14.88109
G1 X83.230 Y129.483 E14.93180
G1 X97.480 Y143.734 E16.27951
G1 X98.238 Y143.734 E16.33022
G1 X83.230 Y128.725 E17.74965
G1 X83.230 Y127.967 E17.80035
G1 X98.996 Y143.734 E19.29149
G1 X99.755 Y143.734 E19.34220
G1 X83.230 Y127.208 E20.90505
G1 X83.230 Y126.450 E20.95576
G1 X100.513 Y143.734 E22.59032
G1 X101.271 Y143.734 E22.64103
G1 X83.230 Y125.692 E24.34730
G1 X83.230 Y124.934 E24.39800
G1 X102.029 Y143.734 E26.17599
G1 X102.788 Y143.734 E26.22670
G1 X83.230 Y124.175 E28.07639
G1 X83.230 Y123.417 E28.12710
G1 X103.546 Y143.734 E30.04850
G1 X104.304 Y143.734 E30.09921
G1 X83.230 Y122.659 E32.09233
G1 X83.230 Y121.901 E32.14303
G1 X105.062 Y143.734 E34.20786
G1 X105.821 Y143.734 E34.25857
G1 X83.230 Y121.142 E36.39511
G1 X83.230 Y120.384 E36.44582
G1 X106.579 Y143.734 E38.65407
G1 X107.337 Y143.734 E38.70477
G1 X83.230 Y119.626 E40.98473
G1 X83.230 Y118.868 E41.03544
G1 X108.096 Y143.734 E43.38712
G1 X108.854 Y143.734 E43.43782
G1 X83.230 Y118.109 E45.86121
G1 X83.230 Y117.351 E45.91191
G1 X109.612 Y143.734 E48.40701
G1 X110.370 Y143.734 E48.45772
G1 X83.230 Y116.593 E51.02452
G1 X83.230 Y115.835 E51.07523
G1 X111.129 Y143.734 E53.71375
G1 X111.887 Y143.734 E53.76446
G1 X83.230 Y115.076 E56.47468
G1 X83.230 Y114.318 E56.52539
G1 X112.645 Y143.734 E59.30733
G1 X113.403 Y143.734 E59.35804
G1 X83.230 Y113.560 E62.21169
G1 X83.230 Y112.802 E62.26240
G1 X114.162 Y143.734 E65.18776
G1 X114.920 Y143.734 E65.23847
G1 X83.230 Y112.043 E68.23554
G1 X83.230 Y111.285 E68.28625
G1 X115.678 Y143.734 E71.35503
G1 X116.436 Y143.734 E71.40574
G1 X83.230 Y110.527 E74.54624
G1 X83.230 Y109.769 E74.59694
G1 X117.195 Y143.734 E77.80915
G1 X117.953 Y143.734 E77.85986
G1 X83.230 Y109.010 E81.14378
G1 X83.230 Y108.252 E81.19448
G1 X118.711 Y143.734 E84.55011
G1 X119.469 Y143.734 E84.60082
G1 X83.230 Y107.494 E88.02816
G1 X83.230 Y106.735 E88.07887
G1 X120.228 Y143.734 E91.57792
G1 X120.986 Y143.734 E91.62863
G1 X83.230 Y105.977 E95.19939
G1 X83.230 Y105.219 E95.25010
G1 X121.744 Y143.734 E98.89257
G1 X122.502 Y143.734 E98.94328
G1 X83.230 Y104.461 E102.65747
G1 X83.230 Y103.702 E102.70817
G1 X123.261 Y143.734 E106.49407
G1 X124.019 Y143.734 E106.54478
G1 X83.230 Y102.944 E110.40239
G1 X83.230 Y102.186 E110.45309
G1 X124.777 Y143.734 E114.38241
G1 X125.535 Y143.734 E114.43312
G1 X83.230 Y101.428 E118.43415
G1 X83.230 Y100.669 E118.48486
G1 X126.294 Y143.734 E122.55760
G1 X127.052 Y143.734 E122.60831
G1 X83.230 Y99.911 E126.75276
G1 X83.230 Y99.153 E126.80347
G1 X127.810 Y143.734 E131.01963
G1 X128.568 Y143.734 E131.07034
G1 X83.230 Y98.395 E135.35821
G1 X83.230 Y97.636 E135.40892
G1 X129.327 Y143.734 E139.76851
G1 X130.085 Y143.734 E139.81922
G1 X83.230 Y96.878 E144.25051
G1 X83.230 Y96.120 E144.30122
G1 X130.843 Y143.734 E148.80423
G1 X131.601 Y143.734 E148.85494
G1 X83.230 Y95.362 E153.42966
G1 X83.230 Y94.603 E153.48037
G1 X132.360 Y143.734 E158.12680
G1 X133.118 Y143.734 E158.17750
G1 X83.230 Y93.845 E162.89565
G1 X83.230 Y93.087 E162.94635
G1 X133.876 Y143.734 E167.73621
G1 X134.634 Y143.734 E167.78691
G1 X83.230 Y92.329 E172.64848
G1 X83.230 Y91.570 E172.69919
G1 X135.393 Y143.734 E177.63246
G1 X136.151 Y143.734 E177.68317
G1 X83.230 Y90.812 E182.68816
G1 X83.230 Y90.054 E182.73887
G1 X136.770 Y143.595 E187.80244
G1 X136.770 Y142.837 E187.85315
G1 X83.230 Y89.296 E192.91672
G1 X83.230 Y88.537 E192.96743
G1 X136.770 Y142.078 E198.03101
G1 X136.770 Y141.320 E198.08172
G1 X83.230 Y87.779 E203.14529
G1 X83.230 Y87.021 E203.19600
G1 X136.770 Y140.562 E208.25957
G1 X136.770 Y139.804 E208.31028
G1 X83.230 Y86.263 E213.37386
G1 X83.230 Y85.504 E213.42456
G1 X136.770 Y139.045 E218.48814
G1 X136.770 Y138.287 E218.53885
G1 X83.230 Y84.746 E223.60242
G1 X83.230 Y83.988 E223.65313
G1 X136.770 Y137.529 E228.71671
G1 X136.770 Y136.771 E228.76741
G1 X83.230 Y83.230 E233.83099
G1 X83.230 Y82.471 E233.88170
G1 X136.770 Y136.012 E238.94527
G1 X136.770 Y135.254 E238.99598
G1 X83.230 Y81.713 E244.05956
G1 X83.230 Y80.955 E244.11026
G1 X136.770 Y134.496 E249.17384
G1 X136.770 Y133.737 E249.22455
G1 X83.230 Y80.197 E254.28812
G1 X83.230 Y79.438 E254.33883
G1 X136.770 Y132.979 E259.40241
G1 X136.770 Y132.221 E259.45311
G1 X83.230 Y78.680 E264.51669
G1 X83.230 Y77.922 E264.56740
G1 X136.770 Y131.463 E269.63097
G1 X136.770 Y130.704 E269.68168
G1 X83.230 Y77.164 E274.74526
G1 X83.230 Y76.405 E274.79596
G1 X136.770 Y129.946 E279.85954
G1 X136.770 Y129.188 E279.91025
G1 X83.849 Y76.266 E284.91524
G1 X84.607 Y76.266 E284.96595
G1 X136.770 Y128.430 E289.89923
G1 X136.770 Y127.671 E289.94993
G1 X85.365 Y76.266 E294.81150
G1 X86.124 Y76.266 E294.86221
G1 X136.770 Y126.913 E299.65207
G1 X136.770 Y126.155 E299.70278
G1 X86.882 Y76.266 E304.42093
G1 X87.640 Y76.266 E304.47163
G1 X136.770 Y125.397 E309.11807
G1 X136.770 Y124.638 E309.16878
G1 X88.399 Y76.266 E313.74350
G1 X89.157 Y76.266 E313.79421
G1 X136.770 Y123.880 E318.29722
G1 X136.770 Y123.122 E318.34793
G1 X89.915 Y76.266 E322.77923
G1 X90.673 Y76.266 E322.82994
G1 X136.770 Y122.364 E327.18953
G1 X136.770 Y121.605 E327.24024
G1 X91.432 Y76.266 E331.52812
G1 X92.190 Y76.266 E331.57883
G1 X136.770 Y120.847 E335.79500
G1 X136.770 Y120.089 E335.84570
G1 X92.948 Y76.266 E339.99016
G1 X93.706 Y76.266 E340.04087
G1 X136.770 Y119.331 E344.11361
G1 X136.770 Y118.572 E344.16432
G1 X94.465 Y76.266 E348.16536
G1 X95.223 Y76.266 E348.21606
G1 X136.770 Y117.814 E352.14539
G1 X136.770 Y117.056 E352.19610
G1 X95.981 Y76.266 E356.05371
G1 X96.739 Y76.266 E356.10442
G1 X136.770 Y116.298 E359.89032
G1 X136.770 Y115.539 E359.94103
G1 X97.498 Y76.266 E363.65522
G1 X98.256 Y76.266 E363.70592
G1 X136.770 Y114.781 E367.34840
G1 X136.770 Y114.023 E367.39911
G1 X99.014 Y76.266 E370.96988
G1 X99.772 Y76.266 E371.02058
G1 X136.770 Y113.265 E374.51964
G1 X136.770 Y112.506 E374.57035
G1 X100.531 Y76.266 E377.99769
G1 X101.289 Y76.266 E378.04840
G1 X136.770 Y111.748 E381.40404
G1 X136.770 Y110.990 E381.45474
G1 X102.047 Y76.266 E384.73867
G1 X102.805 Y76.266 E384.78937
G1 X136.770 Y110.232 E388.00159
G1 X136.770 Y109.473 E388.05229
G1 X103.564 Y76.266 E391.19279
G1 X104.322 Y76.266 E391.24350
G1 X136.770 Y108.715 E394.31229
G1 X136.770 Y107.957 E394.36300
G1 X105.080 Y76.266 E397.36008
G1 X105.838 Y76.266 E397.41078
G1 X136.770 Y107.199 E400.33615
G1 X136.770 Y106.440 E400.38686
G1 X106.597 Y76.266 E403.24051
G1 X107.355 Y76.266 E403.29122
G1 X136.770 Y105.682 E406.07317
G1 X136.770 Y104.924 E406.12387
G1 X108.113 Y76.266 E408.83411
G1 X108.871 Y76.266 E408.88481
G1 X136.770 Y104.166 E411.52334
G1 X136.770 Y103.407 E411.57404
G1 X109.630 Y76.266 E414.14085
G1 X110.388 Y76.266 E414.19156
G1 X136.770 Y102.649 E416.68666
G1 X136.770 Y101.891 E416.73737
G1 X111.146 Y76.266 E419.16076
G1 X111.904 Y76.266 E419.21146
G1 X136.770 Y101.132 E421.56314
G1 X136.770 Y100.374 E421.61385
G1 X112.663 Y76.266 E423.89381
G1 X113.421 Y76.266 E423.94452
G1 X136.770 Y99.616 E426.15278
G1 X136.770 Y98.858 E426.20348
G1 X114.179 Y76.266 E428.34003
G1 X114.937 Y76.266 E428.39074
G1 X136.770 Y98.099 E430.45557
G1 X136.770 Y97.341 E430.50627
G1 X115.696 Y76.266 E432.49940
G1 X116.454 Y76.266 E432.55010
G1 X136.770 Y96.583 E434.47151
G1 X136.770 Y95.825 E434.52222
G1 X117.212 Y76.266 E436.37192
G1 X117.970 Y76.266 E436.42263
G1 X136.770 Y95.066 E438.20061
G1 X136.770 Y94.308 E438.25132
G1 X118.729 Y76.266 E439.95760
G1 X119.487 Y76.266 E440.00831
G1 X136.770 Y93.550 E441.64287
G1 X136.770 Y92.792 E441.69358
G1 X120.245 Y76.266 E443.25643
G1 X121.004 Y76.266 E443.30714
G1 X136.770 Y92.033 E444.79828
G1 X136.770 Y91.275 E444.84899
G1 X121.762 Y76.266 E446.26842
G1 X122.520 Y76.266 E446.31913
G1 X136.770 Y90.517 E447.66685
G1 X136.770 Y89.759 E447.71756
G1 X123.278 Y76.266 E448.99356
G1 X124.037 Y76.266 E449.04427
G1 X136.770 Y89.000 E450.24857
G1 X136.770 Y88.242 E450.29928
G1 X124.795 Y76.266 E451.43186
G1 X125.553 Y76.266 E451.48257
G1 X136.770 Y87.484 E452.54345
G1 X136.770 Y86.726 E452.59415
G1 X126.311 Y76.266 E453.58332
G1 X127.070 Y76.266 E453.63402
G1 X136.770 Y85.967 E454.55148
G1 X136.770 Y85.209 E454.60218
G1 X127.828 Y76.266 E455.44793
G1 X128.586 Y76.266 E455.49863
G1 X136.770 Y84.451 E456.27266
G1 X136.770 Y83.693 E456.32337
G1 X129.344 Y76.266 E457.02569
G1 X130.103 Y76.266 E457.07640
G1 X136.770 Y82.934 E457.70701
G1 X136.770 Y82.176 E457.75771
G1 X130.861 Y76.266 E458.31661
G1 X131.619 Y76.266 E458.36732
G1 X136.770 Y81.418 E458.85450
G1 X136.770 Y80.660 E458.90521
G1 X132.377 Y76.266 E459.32068
G1 X133.136 Y76.266 E459.37139
G1 X136.770 Y79.901 E459.71515
G1 X136.770 Y79.143 E459.76586
G1 X133.894 Y76.266 E460.03791
G1 X134.652 Y76.266 E460.08862
G1 X136.770 Y78.385 E460.28896
G1 X136.770 Y77.627 E460.33967
G1 X135.410 Y76.266 E460.46830
G1 X136.169 Y76.266 E460.51901
G1 X137.012 Y77.109 E460.59872
G1 Z0.500 F7800.000
G1 X137.504 Y144.467
G1 F3600
G1 X82.496 Y144.467 E462.46069
G1 X82.496 Y75.533 E464.79405
G1 X137.504 Y75.533 E466.65602
G1 X137.504 Y144.407 E468.98735
G1 X137.911 Y144.874 F7800.000
G1 F3600
G1 X82.089 Y144.874 E470.87688
G1 X82.089 Y75.126 E473.23779
G1 X137.911 Y75.126 E475.12732
G1 X137.911 Y144.814 E477.48621
G1 X138.306 Y145.160 F7800.000
G1 F1800
G1 X138.230 Y145.252 E477.49027
G1 X138.115 Y145.282 E477.49428
G1 X81.875 Y145.282 E479.39792
G1 X81.803 Y145.269 E479.40039
G1 X81.711 Y145.193 E479.40445
G1 X81.682 Y145.078 E479.40846
G1 X81.682 Y74.912 E481.78349
G1 X81.694 Y74.840 E481.78597
G1 X81.770 Y74.748 E481.79002
G1 X81.885 Y74.719 E481.79403
G1 X138.123 Y74.719 E483.69762
G1 X138.199 Y74.733 E483.70025
G1 X138.276 Y74.787 E483.70341
G1 X138.318 Y74.915 E483.70798
G1 X138.316 Y145.101 E486.08369
G1 X138.187 Y145.167 F7800.000
G1 X136.557 Y144.345
G1 F1200
G1 X137.199 Y143.703 E486.11451
G1 X137.199 Y143.126 E486.13410
G1 X136.163 Y144.162 E486.18384
G1 X135.586 Y144.162 E486.20343
G1 X137.199 Y142.549 E486.28088
G1 X137.199 Y141.971 E486.30047
G1 X135.008 Y144.162 E486.40563
G1 X134.431 Y144.162 E486.42522
G1 X137.199 Y141.394 E486.55808
G1 X137.199 Y140.817 E486.57768
G1 X133.854 Y144.162 E486.73825
G1 X133.276 Y144.162 E486.75784
G1 X137.199 Y140.240 E486.94613
G1 X137.199 Y139.662 E486.96572
G1 X132.699 Y144.162 E487.18171
G1 X132.122 Y144.162 E487.20130
G1 X137.199 Y139.085 E487.44500
G1 X137.199 Y138.508 E487.46460
G1 X131.545 Y144.162 E487.73601
G1 X130.967 Y144.162 E487.75560
G1 X137.199 Y137.930 E488.05472
G1 X137.199 Y137.353 E488.07431
G1 X130.390 Y144.162 E488.40114
G1 X129.813 Y144.162 E488.42073
G1 X137.199 Y136.776 E488.77527
G1 X137.199 Y136.199 E488.79486
G1 X129.236 Y144.162 E489.17711
G1 X128.658 Y144.162 E489.19670
G1 X137.199 Y135.621 E489.60666
G1 X137.199 Y135.044 E489.62625
G1 X128.081 Y144.162 E490.06392
G1 X127.504 Y144.162 E490.08351
G1 X137.199 Y134.467 E490.54888
G1 X137.199 Y133.890 E490.56848
G1 X126.926 Y144.162 E491.06156
G1 X126.349 Y144.162 E491.08115
G1 X137.199 Y133.312 E491.60194
G1 X137.199 Y132.735 E491.62154
G1 X125.772 Y144.162 E492.17004
G1 X125.195 Y144.162 E492.18963
G1 X137.199 Y132.158 E492.76584
G1 X137.199 Y131.580 E492.78543
G1 X124.617 Y144.162 E493.38935
G1 X124.040 Y144.162 E493.40895
G1 X137.199 Y131.003 E494.04058
G1 X137.199 Y130.426 E494.06017
G1 X123.463 Y144.162 E494.71951
G1 X122.886 Y144.162 E494.73910
G1 X137.199 Y129.849 E495.42615
G1 X137.199 Y129.271 E495.44574
G1 X122.308 Y144.162 E496.16050
G1 X121.731 Y144.162 E496.18009
G1 X137.199 Y128.694 E496.92255
G1 X137.199 Y128.117 E496.94215
G1 X121.154 Y144.162 E497.71232
G1 X120.576 Y144.162 E497.73191
G1 X137.199 Y127.540 E498.52980
G1 X137.199 Y126.962 E498.54939
G1 X119.999 Y144.162 E499.37498
G1 X119.422 Y144.162 E499.39458
G1 X137.199 Y126.385 E500.24788
G1 X137.199 Y125.808 E500.26747
G1 X118.845 Y144.162 E501.14848
G1 X118.267 Y144.162 E501.16808
G1 X137.199 Y125.231 E502.07680
G1 X137.199 Y124.653 E502.09639
G1 X117.690 Y144.162 E503.03282
G1 X117.113 Y144.162 E503.05241
G1 X137.199 Y124.076 E504.01655
G1 X137.199 Y123.499 E504.03614
G1 X116.536 Y144.162 E505.02799
G1 X115.958 Y144.162 E505.04758
G1 X137.199 Y122.921 E506.06714
