; generated by PrusaSlicer 2.0.0+win64 on 2020-01-26 at 17:07:28

; 

; external perimeters extrusion width = 0.45mm
; perimeters extrusion width = 0.45mm
; infill extrusion width = 0.45mm
; solid infill extrusion width = 0.45mm
; top infill extrusion width = 0.40mm
; first layer extrusion width = 0.60mm

M107
M190 S65 ; set bed temperature and wait for it to be reached
M104 S225 ; set temperature
G28 ; home all axes
G1 Z5 F5000 ; lift nozzle
; Filament gcode
M109 S225 ; set temperature and wait for it to be reached
G21 ; set units to millimeters
G90 ; use absolute coordinates
M82 ; use absolute distances for extrusion
G92 E0
G1 Z0.300 F7800.000
G1 E-2.00000 F2400.00000
G92 E0
G1 X78.713 Y69.014 F7800.000
G1 E2.00000 F2400.00000
G1 F1800
G1 X80.133 Y68.454 E2.10196
G1 X81.579 Y68.232 E2.19971
G1 X138.150 Y68.226 E5.97893
G1 X139.379 Y68.341 E6.06140
G1 X140.575 Y68.685 E6.14456
G1 X141.679 Y69.241 E6.22712
G1 X142.689 Y70.017 E6.31221
G1 X143.518 Y70.950 E6.39562
G1 X144.183 Y72.072 E6.48272
G1 X144.608 Y73.265 E6.56737
G1 X144.797 Y74.474 E6.64913
G1 X144.810 Y145.218 E11.37517
G1 X144.713 Y146.244 E11.44404
G1 X144.458 Y147.248 E11.51326
G1 X144.046 Y148.208 E11.58304
G1 X143.507 Y149.067 E11.65080
G1 X142.480 Y150.171 E11.75150
G1 X141.227 Y151.018 E11.85255
G1 X139.772 Y151.571 E11.95650
G1 X138.278 Y151.773 E12.05725
G1 X81.721 Y151.773 E15.83558
G1 X80.701 Y151.673 E15.90402
G1 X79.703 Y151.417 E15.97288
G1 X78.750 Y151.006 E16.04221
G1 X77.896 Y150.469 E16.10958
G1 X76.789 Y149.439 E16.21060
G1 X75.942 Y148.184 E16.31176
G1 X75.389 Y146.723 E16.41613
G1 X75.190 Y145.223 E16.51719
G1 X75.190 Y74.782 E21.22303
G1 X75.287 Y73.756 E21.29192
G1 X75.542 Y72.752 E21.36108
G1 X75.955 Y71.791 E21.43095
G1 X76.493 Y70.933 E21.49865
G1 X77.496 Y69.849 E21.59728
G1 X78.663 Y69.048 E21.69188
G1 E19.69188 F2400.00000
G92 E0
G1 X91.767 Y101.603 F7800.000
G1 E2.00000 F2400.00000
G1 F1800
G1 X91.535 Y101.976 E2.02935
G1 X91.266 Y102.323 E2.05869
G1 X90.977 Y102.628 E2.08672
G1 X90.632 Y102.927 E2.11725
G1 X90.269 Y103.179 E2.14673
G1 X89.885 Y103.392 E2.17608
G1 X89.482 Y103.565 E2.20543
G1 X89.062 Y103.697 E2.23477
G1 X88.632 Y103.785 E2.26412
G1 X88.195 Y103.830 E2.29347
G1 X87.756 Y103.830 E2.32282
G1 X87.319 Y103.785 E2.35217
G1 X86.888 Y103.697 E2.38151
G1 X86.469 Y103.565 E2.41086
G1 X86.066 Y103.392 E2.44021
G1 X85.681 Y103.179 E2.46956
G1 X85.321 Y102.928 E2.49890
G1 X84.988 Y102.642 E2.52825
G1 X84.685 Y102.323 E2.55760
G1 X84.416 Y101.976 E2.58695
G1 X84.184 Y101.603 E2.61629
G1 X83.990 Y101.209 E2.64564
G1 X83.838 Y100.797 E2.67499
G1 X83.727 Y100.372 E2.70434
G1 X83.661 Y99.937 E2.73368
G1 X83.639 Y99.499 E2.76303
G1 X83.661 Y99.060 E2.79238
G1 X83.727 Y98.626 E2.82173
G1 X83.838 Y98.200 E2.85107
G1 X83.990 Y97.788 E2.88042
G1 X84.184 Y97.394 E2.90977
G1 X84.416 Y97.021 E2.93912
G1 X84.685 Y96.674 E2.96847
G1 X84.988 Y96.355 E2.99781
G1 X85.321 Y96.069 E3.02716
G1 X85.681 Y95.818 E3.05651
G1 X86.066 Y95.605 E3.08585
G1 X86.469 Y95.432 E3.11520
G1 X86.888 Y95.300 E3.14455
G1 X87.319 Y95.212 E3.17390
G1 X87.756 Y95.168 E3.20325
G1 X88.195 Y95.168 E3.23259
G1 X88.632 Y95.212 E3.26194
G1 X89.062 Y95.300 E3.29129
G1 X89.482 Y95.432 E3.32064
G1 X89.885 Y95.605 E3.34998
G1 X90.269 Y95.818 E3.37933
G1 X90.630 Y96.069 E3.40868
G1 X90.963 Y96.355 E3.43803
G1 X91.266 Y96.674 E3.46737
G1 X91.535 Y97.021 E3.49672
G1 X91.767 Y97.394 E3.52607
G1 X91.961 Y97.788 E3.55542
G1 X92.113 Y98.200 E3.58476
G1 X92.223 Y98.626 E3.61411
G1 X92.290 Y99.060 E3.64346
G1 X92.312 Y99.499 E3.67281
G1 X92.290 Y99.937 E3.70216
G1 X92.223 Y100.372 E3.73150
G1 X92.113 Y100.797 E3.76085
G1 X91.961 Y101.209 E3.79020
G1 X91.794 Y101.549 E3.81554
G1 X91.298 Y101.343 F7800.000
G1 F1800
G1 X91.095 Y101.670 E3.84126
G1 X90.859 Y101.974 E3.86697
G1 X90.606 Y102.240 E3.89146
G1 X90.302 Y102.503 E3.91836
G1 X89.986 Y102.724 E3.94412
G1 X89.649 Y102.911 E3.96984
G1 X89.295 Y103.062 E3.99556
G1 X88.928 Y103.178 E4.02128
G1 X88.551 Y103.255 E4.04700
G1 X88.168 Y103.294 E4.07271
G1 X87.783 Y103.294 E4.09843
G1 X87.400 Y103.255 E4.12415
G1 X87.023 Y103.178 E4.14987
G1 X86.656 Y103.062 E4.17559
G1 X86.302 Y102.911 E4.20131
G1 X85.965 Y102.724 E4.22702
G1 X85.649 Y102.504 E4.25274
G1 X85.357 Y102.253 E4.27846
G1 X85.092 Y101.974 E4.30418
G1 X84.856 Y101.670 E4.32990
G1 X84.653 Y101.343 E4.35561
G1 X84.483 Y100.997 E4.38133
G1 X84.349 Y100.636 E4.40705
G1 X84.253 Y100.264 E4.43277
G1 X84.195 Y99.883 E4.45849
G1 X84.175 Y99.499 E4.48421
G1 X84.195 Y99.114 E4.50992
G1 X84.253 Y98.734 E4.53564
G1 X84.349 Y98.361 E4.56136
G1 X84.483 Y98.000 E4.58708
G1 X84.653 Y97.654 E4.61280
G1 X84.856 Y97.328 E4.63852
G1 X85.092 Y97.023 E4.66423
G1 X85.357 Y96.744 E4.68995
G1 X85.649 Y96.493 E4.71567
G1 X85.965 Y96.273 E4.74139
G1 X86.302 Y96.087 E4.76711
G1 X86.656 Y95.935 E4.79283
G1 X87.023 Y95.820 E4.81854
G1 X87.400 Y95.742 E4.84426
G1 X87.783 Y95.703 E4.86998
G1 X88.168 Y95.703 E4.89570
G1 X88.551 Y95.742 E4.92142
G1 X88.928 Y95.820 E4.94713
G1 X89.295 Y95.935 E4.97285
G1 X89.649 Y96.087 E4.99857
G1 X89.986 Y96.273 E5.02429
G1 X90.302 Y96.493 E5.05001
G1 X90.594 Y96.744 E5.07573
G1 X90.859 Y97.023 E5.10144
G1 X91.095 Y97.328 E5.12716
G1 X91.298 Y97.654 E5.15288
G1 X91.468 Y98.000 E5.17860
G1 X91.602 Y98.361 E5.20432
G1 X91.698 Y98.734 E5.23004
G1 X91.756 Y99.114 E5.25575
G1 X91.776 Y99.499 E5.28147
G1 X91.756 Y99.883 E5.30719
G1 X91.698 Y100.264 E5.33291
G1 X91.602 Y100.636 E5.35863
G1 X91.468 Y100.997 E5.38434
G1 X91.325 Y101.289 E5.40605
G1 X91.496 Y101.673 F7800.000
G1 E3.40605 F2400.00000
G92 E0
G1 X127.672 Y99.499 F7800.000
G1 E2.00000 F2400.00000
G1 F1800
G1 X127.694 Y99.060 E2.02935
G1 X127.761 Y98.626 E2.05869
G1 X127.871 Y98.200 E2.08804
G1 X128.023 Y97.788 E2.11739
G1 X128.217 Y97.394 E2.14674
G1 X128.449 Y97.021 E2.17609
G1 X128.718 Y96.674 E2.20543
G1 X129.021 Y96.355 E2.23478
G1 X129.354 Y96.069 E2.26413
G1 X129.715 Y95.818 E2.29348
G1 X130.099 Y95.605 E2.32282
G1 X130.503 Y95.432 E2.35217
G1 X130.922 Y95.300 E2.38152
G1 X131.352 Y95.212 E2.41087
G1 X131.789 Y95.168 E2.44021
G1 X132.228 Y95.168 E2.46956
G1 X132.665 Y95.212 E2.49891
G1 X133.096 Y95.300 E2.52826
G1 X133.515 Y95.432 E2.55760
G1 X133.919 Y95.605 E2.58695
G1 X134.303 Y95.818 E2.61630
G1 X134.663 Y96.069 E2.64565
G1 X134.997 Y96.355 E2.67499
G1 X135.299 Y96.674 E2.70434
G1 X135.568 Y97.021 E2.73369
G1 X135.800 Y97.394 E2.76304
G1 X135.994 Y97.788 E2.79239
G1 X136.147 Y98.200 E2.82173
G1 X136.257 Y98.626 E2.85108
G1 X136.323 Y99.060 E2.88043
G1 X136.345 Y99.499 E2.90978
G1 X136.323 Y99.937 E2.93912
G1 X136.257 Y100.372 E2.96847
G1 X136.147 Y100.797 E2.99782
G1 X135.994 Y101.209 E3.02716
G1 X135.800 Y101.603 E3.05651
G1 X135.568 Y101.976 E3.08586
G1 X135.299 Y102.323 E3.11521
G1 X134.997 Y102.642 E3.14456
G1 X134.663 Y102.928 E3.17390
G1 X134.303 Y103.179 E3.20325
G1 X133.919 Y103.392 E3.23260
G1 X133.515 Y103.565 E3.26195
G1 X133.096 Y103.697 E3.29129
G1 X132.665 Y103.785 E3.32064
G1 X132.228 Y103.830 E3.34999
G1 X131.789 Y103.830 E3.37934
G1 X131.352 Y103.785 E3.40868
G1 X130.922 Y103.697 E3.43803
G1 X130.503 Y103.565 E3.46738
G1 X130.099 Y103.392 E3.49673
G1 X129.715 Y103.179 E3.52607
G1 X129.354 Y102.928 E3.55542
G1 X129.021 Y102.642 E3.58477
G1 X128.718 Y102.323 E3.61412
G1 X128.449 Y101.976 E3.64347
G1 X128.217 Y101.603 E3.67281
G1 X128.023 Y101.209 E3.70216
G1 X127.871 Y100.797 E3.73151
G1 X127.761 Y100.372 E3.76086
G1 X127.694 Y99.937 E3.79020
G1 X127.675 Y99.559 E3.81554
G1 X128.208 Y99.499 F7800.000
G1 F1800
G1 X128.228 Y99.114 E3.84126
G1 X128.286 Y98.734 E3.86698
G1 X128.383 Y98.361 E3.89270
G1 X128.516 Y98.000 E3.91842
G1 X128.686 Y97.654 E3.94413
G1 X128.889 Y97.328 E3.96985
G1 X129.125 Y97.023 E3.99557
G1 X129.390 Y96.744 E4.02129
G1 X129.682 Y96.493 E4.04701
G1 X129.998 Y96.273 E4.07273
G1 X130.335 Y96.087 E4.09844
G1 X130.689 Y95.935 E4.12416
G1 X131.056 Y95.820 E4.14988
G1 X131.433 Y95.742 E4.17560
G1 X131.816 Y95.703 E4.20132
G1 X132.201 Y95.703 E4.22703
G1 X132.584 Y95.742 E4.25275
G1 X132.961 Y95.820 E4.27847
G1 X133.329 Y95.935 E4.30419
G1 X133.682 Y96.087 E4.32991
G1 X134.019 Y96.273 E4.35563
G1 X134.335 Y96.493 E4.38134
G1 X134.627 Y96.744 E4.40706
G1 X134.892 Y97.023 E4.43278
G1 X135.128 Y97.328 E4.45850
G1 X135.332 Y97.654 E4.48422
G1 X135.501 Y98.000 E4.50994
G1 X135.635 Y98.361 E4.53565
G1 X135.731 Y98.734 E4.56137
G1 X135.790 Y99.114 E4.58709
G1 X135.809 Y99.499 E4.61281
G1 X135.790 Y99.883 E4.63853
G1 X135.731 Y100.264 E4.66425
G1 X135.635 Y100.636 E4.68996
G1 X135.501 Y100.997 E4.71568
G1 X135.332 Y101.343 E4.74140
G1 X135.128 Y101.670 E4.76712
G1 X134.892 Y101.974 E4.79284
G1 X134.627 Y102.253 E4.81856
G1 X134.335 Y102.504 E4.84427
G1 X134.019 Y102.724 E4.86999
G1 X133.682 Y102.911 E4.89571
G1 X133.329 Y103.062 E4.92143
G1 X132.961 Y103.178 E4.94715
G1 X132.584 Y103.255 E4.97286
G1 X132.201 Y103.294 E4.99858
G1 X131.816 Y103.294 E5.02430
G1 X131.433 Y103.255 E5.05002
G1 X131.056 Y103.178 E5.07574
G1 X130.689 Y103.062 E5.10146
G1 X130.335 Y102.911 E5.12717
G1 X129.998 Y102.724 E5.15289
G1 X129.682 Y102.504 E5.17861
G1 X129.390 Y102.253 E5.20433
G1 X129.125 Y101.974 E5.23005
G1 X128.889 Y101.670 E5.25577
G1 X128.686 Y101.343 E5.28148
G1 X128.516 Y100.997 E5.30720
G1 X128.383 Y100.636 E5.33292
G1 X128.286 Y100.264 E5.35864
G1 X128.228 Y99.883 E5.38436
G1 X128.211 Y99.559 E5.40607
G1 X127.875 Y99.306 F7800.000
G1 E3.40607 F2400.00000
G92 E0
G1 X124.164 Y112.052 F7800.000
G1 E2.00000 F2400.00000
G1 F1800
G1 X124.164 Y134.494 E3.49928
G1 X93.722 Y134.494 E5.53300
G1 X93.722 Y112.052 E7.03228
G1 X124.104 Y112.052 E9.06200
G1 X123.628 Y112.587 F7800.000
G1 F1800
G1 X123.628 Y133.959 E10.48971
G1 X94.257 Y133.959 E12.45187
G1 X94.257 Y112.587 E13.87958
G1 X123.568 Y112.587 E15.83773
G1 X123.093 Y113.123 F7800.000
G1 F1800
G1 X123.093 Y133.423 E17.19388
G1 X94.793 Y133.423 E19.08448
G1 X94.793 Y113.123 E20.44063
G1 X123.033 Y113.123 E22.32721
G1 X123.484 Y113.041 F7800.000
G1 E20.32721 F2400.00000
G92 E0
G1 X97.290 Y86.259 F7800.000
G1 E2.00000 F2400.00000
G1 F1800
G1 X97.118 Y86.675 E2.03007
G1 X96.904 Y87.086 E2.06106
G1 X96.655 Y87.477 E2.09206
G1 X96.360 Y87.861 E2.12433
G1 X95.899 Y88.337 E2.16867
G1 X95.366 Y88.772 E2.21460
G1 X94.957 Y89.033 E2.24699
G1 X94.546 Y89.247 E2.27798
G1 X94.117 Y89.424 E2.30897
G1 X93.675 Y89.564 E2.33997
G1 X93.222 Y89.664 E2.37096
G1 X92.762 Y89.725 E2.40196
G1 X92.298 Y89.745 E2.43295
G1 X91.835 Y89.725 E2.46395
G1 X91.375 Y89.664 E2.49494
G1 X90.922 Y89.564 E2.52593
G1 X90.479 Y89.424 E2.55693
G1 X90.051 Y89.247 E2.58792
G1 X89.639 Y89.033 E2.61892
G1 X89.248 Y88.783 E2.64991
G1 X88.880 Y88.501 E2.68091
G1 X88.538 Y88.188 E2.71190
G1 X88.224 Y87.845 E2.74289
G1 X87.942 Y87.477 E2.77389
G1 X87.682 Y87.070 E2.80616
G1 X87.392 Y86.473 E2.85050
G1 X87.166 Y85.824 E2.89643
G1 X87.061 Y85.351 E2.92882
G1 X87.000 Y84.891 E2.95981
G1 X86.980 Y84.427 E2.99080
G1 X87.000 Y83.964 E3.02180
G1 X87.063 Y83.485 E3.05407
G1 X87.225 Y82.841 E3.09842
G1 X87.469 Y82.198 E3.14434
G1 X87.693 Y81.768 E3.17673
G1 X87.942 Y81.377 E3.20772
G1 X88.236 Y80.993 E3.23999
G1 X88.698 Y80.517 E3.28434
G1 X89.230 Y80.082 E3.33026
G1 X89.639 Y79.821 E3.36265
G1 X90.051 Y79.607 E3.39364
G1 X90.479 Y79.430 E3.42464
G1 X90.922 Y79.290 E3.45563
G1 X91.393 Y79.186 E3.48790
G1 X92.054 Y79.117 E3.53225
G1 X92.741 Y79.126 E3.57817
G1 X93.222 Y79.190 E3.61056
G1 X93.675 Y79.290 E3.64155
G1 X94.117 Y79.430 E3.67255
G1 X94.546 Y79.607 E3.70354
G1 X94.957 Y79.821 E3.73454
G1 X95.349 Y80.071 E3.76553
G1 X95.717 Y80.353 E3.79653
G1 X96.059 Y80.667 E3.82752
G1 X96.385 Y81.023 E3.85979
G1 X96.774 Y81.560 E3.90414
G1 X97.110 Y82.160 E3.95006
G1 X97.313 Y82.650 E3.98548
G1 X97.478 Y82.214 E4.01665
G1 X97.702 Y81.784 E4.04904
G1 X97.952 Y81.392 E4.08003
G1 X98.234 Y81.024 E4.11102
G1 X98.547 Y80.682 E4.14202
G1 X98.889 Y80.369 E4.17301
G1 X99.257 Y80.086 E4.20401
G1 X99.649 Y79.837 E4.23500
G1 X100.060 Y79.623 E4.26600
G1 X100.489 Y79.445 E4.29699
G1 X100.931 Y79.306 E4.32798
G1 X101.403 Y79.201 E4.36026
G1 X102.063 Y79.133 E4.40460
G1 X102.751 Y79.142 E4.45053
G1 X103.231 Y79.205 E4.48291
G1 X103.684 Y79.306 E4.51391
G1 X104.127 Y79.445 E4.54490
G1 X104.555 Y79.623 E4.57589
G1 X104.967 Y79.837 E4.60689
G1 X105.358 Y80.086 E4.63788
G1 X105.726 Y80.369 E4.66888
G1 X106.068 Y80.682 E4.69987
G1 X106.382 Y81.024 E4.73087
G1 X106.664 Y81.392 E4.76186
G1 X106.913 Y81.784 E4.79285
G1 X107.128 Y82.195 E4.82385
G1 X107.305 Y82.624 E4.85484
G1 X107.445 Y83.066 E4.88584
G1 X107.545 Y83.519 E4.91683
G1 X107.606 Y83.979 E4.94782
G1 X107.626 Y84.443 E4.97882
G1 X107.606 Y84.906 E5.00981
G1 X107.545 Y85.366 E5.04081
G1 X107.445 Y85.819 E5.07180
G1 X107.305 Y86.262 E5.10280
G1 X107.128 Y86.690 E5.13379
G1 X106.913 Y87.102 E5.16478
G1 X106.664 Y87.493 E5.19578
G1 X106.382 Y87.861 E5.22677
G1 X106.068 Y88.203 E5.25777
G1 X105.726 Y88.517 E5.28876
G1 X105.358 Y88.799 E5.31976
G1 X104.967 Y89.048 E5.35075
G1 X104.555 Y89.263 E5.38174
G1 X104.127 Y89.440 E5.41274
G1 X103.684 Y89.580 E5.44373
G1 X103.231 Y89.680 E5.47473
G1 X102.771 Y89.741 E5.50572
G1 X102.308 Y89.761 E5.53671
G1 X101.844 Y89.741 E5.56771
G1 X101.365 Y89.678 E5.59998
G1 X100.722 Y89.516 E5.64433
G1 X100.079 Y89.272 E5.69025
G1 X99.649 Y89.048 E5.72264
G1 X99.258 Y88.799 E5.75363
G1 X98.889 Y88.517 E5.78462
G1 X98.547 Y88.203 E5.81562
G1 X98.234 Y87.861 E5.84661
G1 X97.952 Y87.493 E5.87761
G1 X97.692 Y87.086 E5.90988
G1 X97.317 Y86.313 E5.96729
G1 X97.897 Y86.283 F7800.000
G1 F1800
G1 X97.692 Y85.693 E6.00902
G1 X97.599 Y85.273 E6.03774
G1 X97.544 Y84.860 E6.06561
G1 X97.526 Y84.443 E6.09348
G1 X97.544 Y84.026 E6.12135
G1 X97.600 Y83.601 E6.15000
G1 X97.747 Y83.017 E6.19020
G1 X97.968 Y82.433 E6.23193
G1 X98.167 Y82.052 E6.26065
G1 X98.391 Y81.700 E6.28852
G1 X98.645 Y81.369 E6.31639
G1 X98.926 Y81.061 E6.34426
G1 X99.234 Y80.780 E6.37213
G1 X99.565 Y80.526 E6.40000
G1 X99.917 Y80.301 E6.42787
G1 X100.287 Y80.109 E6.45574
G1 X100.672 Y79.949 E6.48360
G1 X101.070 Y79.824 E6.51147
G1 X101.489 Y79.731 E6.54012
G1 X102.087 Y79.669 E6.58032
G1 X102.712 Y79.677 E6.62206
G1 X103.138 Y79.733 E6.65077
G1 X103.546 Y79.824 E6.67864
G1 X103.943 Y79.949 E6.70651
G1 X104.329 Y80.109 E6.73438
G1 X104.699 Y80.301 E6.76225
G1 X105.051 Y80.526 E6.79012
G1 X105.382 Y80.780 E6.81799
G1 X105.689 Y81.061 E6.84586
G1 X105.971 Y81.369 E6.87373
G1 X106.225 Y81.700 E6.90160
G1 X106.449 Y82.052 E6.92947
G1 X106.642 Y82.422 E6.95734
G1 X106.801 Y82.807 E6.98521
G1 X106.927 Y83.205 E7.01308
G1 X107.017 Y83.612 E7.04095
G1 X107.072 Y84.026 E7.06882
G1 X107.090 Y84.443 E7.09669
G1 X107.072 Y84.860 E7.12456
G1 X107.017 Y85.273 E7.15243
G1 X106.927 Y85.680 E7.18030
G1 X106.801 Y86.078 E7.20817
G1 X106.642 Y86.464 E7.23603
G1 X106.449 Y86.834 E7.26390
G1 X106.225 Y87.186 E7.29177
G1 X105.971 Y87.517 E7.31964
G1 X105.689 Y87.824 E7.34751
G1 X105.382 Y88.106 E7.37538
G1 X105.051 Y88.360 E7.40325
G1 X104.699 Y88.584 E7.43112
G1 X104.329 Y88.777 E7.45899
G1 X103.943 Y88.936 E7.48686
G1 X103.546 Y89.062 E7.51473
G1 X103.138 Y89.152 E7.54260
G1 X102.725 Y89.207 E7.57047
G1 X102.308 Y89.225 E7.59834
G1 X101.891 Y89.207 E7.62621
G1 X101.466 Y89.151 E7.65486
G1 X100.882 Y89.004 E7.69506
G1 X100.298 Y88.783 E7.73679
G1 X99.917 Y88.584 E7.76551
G1 X99.565 Y88.360 E7.79338
G1 X99.234 Y88.106 E7.82125
G1 X98.926 Y87.824 E7.84912
G1 X98.645 Y87.517 E7.87699
G1 X98.391 Y87.186 E7.90486
G1 X98.160 Y86.824 E7.93350
G1 X97.924 Y86.337 E7.96970
G1 X98.393 Y86.077 F7800.000
G1 F1800
G1 X98.208 Y85.546 E8.00724
G1 X98.126 Y85.180 E8.03229
