; generated by PrusaSlicer 2.0.0+win64 on 2020-01-20 at 18:27:35

; 

; external perimeters extrusion width = 0.51mm
; perimeters extrusion width = 0.51mm
; infill extrusion width = 0.51mm
; solid infill extrusion width = 0.51mm
; top infill extrusion width = 0.45mm
; support material extrusion width = 0.45mm
; first layer extrusion width = 0.60mm

M107
M190 S65 ; set bed temperature and wait for it to be reached
M104 S225 ; set temperature
G28 ; home all axes
G1 Z5 F5000 ; lift nozzle
; Filament gcode
M109 S225 ; set temperature and wait for it to be reached
G21 ; set units to millimeters
G90 ; use absolute coordinates
M82 ; use absolute distances for extrusion
G92 E0
G1 Z0.300 F7800.000
G1 E-2.00000 F2400.00000
G92 E0
G1 X77.365 Y69.746 F7800.000
G1 E2.00000 F2400.00000
G1 F1800
G1 X78.522 Y68.955 E2.09360
G1 X79.819 Y68.443 E2.18679
G1 X81.198 Y68.231 E2.27998
G1 X138.550 Y68.226 E6.11137
G1 X139.724 Y68.338 E6.19017
G1 X140.856 Y68.668 E6.26898
G1 X141.907 Y69.205 E6.34778
G1 X142.838 Y69.928 E6.42658
G1 X143.618 Y70.814 E6.50539
G1 X144.217 Y71.830 E6.58419
G1 X144.616 Y72.940 E6.66300
G1 X144.799 Y74.105 E6.74180
G1 X144.810 Y145.605 E11.51840
G1 X144.720 Y146.571 E11.58320
G1 X144.482 Y147.512 E11.64801
G1 X144.101 Y148.404 E11.71282
G1 X143.584 Y149.232 E11.77804
G1 X142.612 Y150.275 E11.87328
G1 X141.423 Y151.073 E11.96893
G1 X140.085 Y151.582 E12.06459
G1 X138.666 Y151.773 E12.16024
G1 X81.333 Y151.773 E15.99039
G1 X80.373 Y151.680 E16.05479
G1 X79.434 Y151.439 E16.11959
G1 X78.548 Y151.059 E16.18399
G1 X77.731 Y150.547 E16.24839
G1 X76.684 Y149.570 E16.34404
G1 X75.884 Y148.375 E16.44010
G1 X75.378 Y147.036 E16.53575
G1 X75.190 Y145.610 E16.63182
G1 X75.190 Y74.388 E21.38984
G1 X75.281 Y73.423 E21.45464
G1 X75.520 Y72.482 E21.51945
G1 X75.902 Y71.590 E21.58426
G1 X76.416 Y70.768 E21.64907
G1 X77.319 Y69.795 E21.73775
G1 E19.73775 F2400.00000
G92 E0
G1 X124.164 Y134.494 F7800.000
G1 E2.00000 F2400.00000
G1 F1800
G1 X93.722 Y134.494 E4.03372
G1 X93.722 Y112.052 E5.53300
G1 X124.164 Y112.052 E7.56672
G1 X124.164 Y134.427 E9.06149
G1 X123.628 Y133.959 F7800.000
G1 F1800
G1 X94.257 Y133.959 E11.02365
G1 X94.257 Y112.587 E12.45137
G1 X123.628 Y112.587 E14.41352
G1 X123.628 Y133.891 E15.83673
G1 X123.093 Y133.423 F7800.000
G1 F1800
G1 X94.793 Y133.423 E17.72732
G1 X94.793 Y113.123 E19.08347
G1 X123.093 Y113.123 E20.97407
G1 X123.093 Y133.356 E22.32571
G1 X123.233 Y133.851 F7800.000
G1 E20.32571 F2400.00000
G92 E0
G1 X90.582 Y101.646 F7800.000
G1 E2.00000 F2400.00000
G1 F1800
G1 X90.001 Y102.206 E2.05395
G1 X89.314 Y102.603 E2.10690
G1 X88.562 Y102.828 E2.15933
G1 X87.779 Y102.873 E2.21177
G1 X87.036 Y102.743 E2.26215
G1 X86.291 Y102.431 E2.31610
G1 X85.656 Y101.958 E2.36904
G1 X85.151 Y101.356 E2.42148
G1 X84.799 Y100.655 E2.47392
G1 X84.618 Y99.891 E2.52636
G1 X84.618 Y99.106 E2.57879
G1 X84.799 Y98.342 E2.63123
G1 X85.151 Y97.641 E2.68367
G1 X85.656 Y97.040 E2.73610
G1 X86.285 Y96.571 E2.78854
G1 X87.006 Y96.260 E2.84098
G1 X87.748 Y96.129 E2.89135
G1 X88.555 Y96.167 E2.94530
G1 X89.314 Y96.395 E2.99825
G1 X89.994 Y96.787 E3.05069
G1 X90.565 Y97.326 E3.10312
G1 X90.996 Y97.981 E3.15556
G1 X91.265 Y98.719 E3.20800
G1 X91.356 Y99.499 E3.26043
G1 X91.265 Y100.278 E3.31287
G1 X90.996 Y101.016 E3.36531
G1 X90.619 Y101.589 E3.41117
G1 X90.167 Y101.302 F7800.000
G1 F1800
G1 X89.676 Y101.775 E3.45676
G1 X89.101 Y102.108 E3.50114
G1 X88.469 Y102.297 E3.54521
G1 X87.810 Y102.335 E3.58929
G1 X87.188 Y102.225 E3.63150
G1 X86.558 Y101.962 E3.67708
G1 X86.026 Y101.565 E3.72146
G1 X85.602 Y101.060 E3.76554
G1 X85.305 Y100.470 E3.80961
G1 X85.153 Y99.828 E3.85368
G1 X85.153 Y99.169 E3.89775
G1 X85.305 Y98.527 E3.94182
G1 X85.602 Y97.937 E3.98590
G1 X86.026 Y97.432 E4.02997
G1 X86.555 Y97.038 E4.07404
G1 X87.161 Y96.777 E4.11811
G1 X87.783 Y96.667 E4.16032
G1 X88.464 Y96.699 E4.20591
G1 X89.101 Y96.890 E4.25029
G1 X89.672 Y97.220 E4.29436
G1 X90.152 Y97.672 E4.33844
G1 X90.514 Y98.223 E4.38251
G1 X90.740 Y98.843 E4.42658
G1 X90.817 Y99.499 E4.47065
G1 X90.740 Y100.154 E4.51473
G1 X90.514 Y100.774 E4.55880
G1 X90.204 Y101.245 E4.59650
G1 X89.753 Y100.958 F7800.000
G1 F1800
G1 X89.352 Y101.344 E4.63372
G1 X88.887 Y101.612 E4.66954
G1 X88.375 Y101.766 E4.70524
G1 X87.842 Y101.797 E4.74095
G1 X87.340 Y101.708 E4.77500
G1 X86.826 Y101.493 E4.81222
G1 X86.396 Y101.173 E4.84804
G1 X86.052 Y100.764 E4.88374
G1 X85.812 Y100.286 E4.91945
G1 X85.689 Y99.766 E4.95516
G1 X85.689 Y99.231 E4.99087
G1 X85.812 Y98.711 E5.02657
G1 X86.052 Y98.234 E5.06228
G1 X86.396 Y97.824 E5.09799
G1 X86.824 Y97.505 E5.13370
G1 X87.315 Y97.293 E5.16940
G1 X87.817 Y97.205 E5.20345
G1 X88.374 Y97.231 E5.24067
G1 X88.887 Y97.385 E5.27649
G1 X89.350 Y97.652 E5.31219
G1 X89.739 Y98.019 E5.34790
G1 X90.033 Y98.465 E5.38361
G1 X90.215 Y98.968 E5.41932
G1 X90.277 Y99.499 E5.45503
G1 X90.215 Y100.030 E5.49073
G1 X90.033 Y100.532 E5.52644
G1 X89.790 Y100.901 E5.55598
G1 X89.910 Y101.379 F7800.000
G1 E3.55598 F2400.00000
G92 E0
G1 X92.686 Y88.203 F7800.000
G1 E2.00000 F2400.00000
G1 F1800
G1 X91.888 Y87.981 E2.05532
G1 X91.157 Y87.593 E2.11064
G1 X90.551 Y87.079 E2.16371
G1 X90.028 Y86.404 E2.22076
G1 X89.677 Y85.646 E2.27655
G1 X89.499 Y84.838 E2.33187
G1 X89.499 Y84.010 E2.38719
G1 X89.677 Y83.201 E2.44250
G1 X90.025 Y82.450 E2.49782
G1 X90.526 Y81.790 E2.55314
G1 X91.157 Y81.254 E2.60846
G1 X91.888 Y80.866 E2.66378
G1 X92.686 Y80.645 E2.71909
G1 X93.480 Y80.602 E2.77217
G1 X94.324 Y80.731 E2.82922
G1 X95.099 Y81.040 E2.88501
G1 X95.785 Y81.505 E2.94033
G1 X96.354 Y82.106 E2.99564
G1 X96.781 Y82.816 E3.05096
G1 X97.046 Y83.601 E3.10628
G1 X97.135 Y84.424 E3.16160
G1 X97.046 Y85.247 E3.21692
G1 X96.781 Y86.032 E3.27223
G1 X96.354 Y86.741 E3.32755
G1 X95.808 Y87.318 E3.38063
G1 X95.106 Y87.804 E3.43768
G1 X94.330 Y88.113 E3.49347
G1 X93.513 Y88.247 E3.54879
G1 X92.754 Y88.206 E3.59959
G1 X92.773 Y87.671 F7800.000
G1 F1800
G1 X92.088 Y87.481 E3.64713
G1 X91.459 Y87.147 E3.69466
G1 X90.940 Y86.707 E3.74014
G1 X90.488 Y86.124 E3.78941
G1 X90.187 Y85.474 E3.83723
G1 X90.034 Y84.780 E3.88476
G1 X90.034 Y84.068 E3.93230
G1 X90.187 Y83.373 E3.97983
G1 X90.486 Y82.727 E4.02737
G1 X90.917 Y82.161 E4.07490
G1 X91.459 Y81.700 E4.12244
G1 X92.088 Y81.367 E4.16997
G1 X92.773 Y81.177 E4.21751
G1 X93.453 Y81.140 E4.26298
G1 X94.182 Y81.252 E4.31225
G1 X94.847 Y81.517 E4.36007
G1 X95.436 Y81.916 E4.40761
G1 X95.925 Y82.432 E4.45514
G1 X96.292 Y83.042 E4.50268
G1 X96.519 Y83.716 E4.55021
G1 X96.596 Y84.424 E4.59775
G1 X96.519 Y85.131 E4.64528
G1 X96.292 Y85.805 E4.69282
G1 X95.925 Y86.415 E4.74035
G1 X95.457 Y86.909 E4.78583
G1 X94.851 Y87.329 E4.83509
G1 X94.186 Y87.594 E4.88292
G1 X93.484 Y87.709 E4.93045
G1 X92.841 Y87.675 E4.97348
G1 X92.861 Y87.139 F7800.000
G1 F1800
G1 X92.287 Y86.980 E5.01323
G1 X91.761 Y86.701 E5.05298
G1 X91.329 Y86.334 E5.09086
G1 X90.949 Y85.844 E5.13234
G1 X90.698 Y85.302 E5.17220
G1 X90.570 Y84.721 E5.21195
G1 X90.570 Y84.126 E5.25170
G1 X90.698 Y83.545 E5.29145
G1 X90.948 Y83.005 E5.33120
G1 X91.308 Y82.531 E5.37096
G1 X91.761 Y82.146 E5.41071
G1 X92.287 Y81.867 E5.45046
G1 X92.861 Y81.708 E5.49021
G1 X93.427 Y81.678 E5.52809
G1 X94.040 Y81.772 E5.56957
G1 X94.595 Y81.993 E5.60943
G1 X95.087 Y82.326 E5.64918
G1 X95.496 Y82.758 E5.68893
G1 X95.803 Y83.268 E5.72868
G1 X95.993 Y83.832 E5.76843
G1 X96.057 Y84.424 E5.80819
G1 X95.993 Y85.015 E5.84794
G1 X95.803 Y85.579 E5.88769
G1 X95.496 Y86.089 E5.92744
G1 X95.106 Y86.501 E5.96532
G1 X94.596 Y86.854 E6.00680
G1 X94.042 Y87.075 E6.04666
G1 X93.455 Y87.171 E6.08641
G1 X92.928 Y87.143 E6.12165
G1 X92.575 Y87.487 F7800.000
G1 E4.12165 F2400.00000
G92 E0
G1 X99.694 Y85.646 F7800.000
G1 E2.00000 F2400.00000
G1 F1800
G1 X99.516 Y84.838 E2.05532
G1 X99.516 Y84.010 E2.11064
G1 X99.694 Y83.201 E2.16595
G1 X100.042 Y82.450 E2.22127
G1 X100.543 Y81.790 E2.27659
G1 X101.174 Y81.254 E2.33191
G1 X101.906 Y80.866 E2.38722
G1 X102.704 Y80.645 E2.44254
G1 X103.497 Y80.602 E2.49562
G1 X104.341 Y80.731 E2.55267
G1 X105.117 Y81.040 E2.60846
G1 X105.802 Y81.505 E2.66378
G1 X106.372 Y82.106 E2.71909
G1 X106.799 Y82.816 E2.77441
G1 X107.063 Y83.601 E2.82973
G1 X107.153 Y84.424 E2.88505
G1 X107.063 Y85.247 E2.94037
G1 X106.799 Y86.032 E2.99568
G1 X106.372 Y86.741 E3.05100
G1 X105.802 Y87.342 E3.10632
G1 X105.117 Y87.807 E3.16164
G1 X104.348 Y88.113 E3.21695
G1 X103.531 Y88.247 E3.27227
G1 X102.704 Y88.203 E3.32759
G1 X101.906 Y87.981 E3.38291
G1 X101.174 Y87.593 E3.43823
G1 X100.569 Y87.079 E3.49130
G1 X100.045 Y86.404 E3.54835
G1 X99.723 Y85.708 E3.59963
G1 X100.205 Y85.474 F7800.000
G1 F1800
G1 X100.052 Y84.780 E3.64717
G1 X100.052 Y84.068 E3.69470
G1 X100.205 Y83.373 E3.74224
G1 X100.504 Y82.727 E3.78977
G1 X100.934 Y82.161 E3.83731
G1 X101.477 Y81.700 E3.88484
G1 X102.105 Y81.367 E3.93238
G1 X102.791 Y81.177 E3.97991
G1 X103.471 Y81.140 E4.02539
G1 X104.200 Y81.252 E4.07465
G1 X104.865 Y81.517 E4.12248
G1 X105.454 Y81.916 E4.17001
G1 X105.943 Y82.432 E4.21755
G1 X106.310 Y83.042 E4.26508
G1 X106.537 Y83.716 E4.31262
G1 X106.614 Y84.424 E4.36015
G1 X106.537 Y85.131 E4.40769
G1 X106.310 Y85.805 E4.45522
G1 X105.943 Y86.415 E4.50275
G1 X105.454 Y86.932 E4.55029
G1 X104.865 Y87.331 E4.59783
G1 X104.204 Y87.594 E4.64536
G1 X103.501 Y87.709 E4.69289
G1 X102.791 Y87.671 E4.74043
G1 X102.105 Y87.481 E4.78796
G1 X101.477 Y87.147 E4.83550
G1 X100.958 Y86.707 E4.88097
G1 X100.506 Y86.124 E4.93024
G1 X100.233 Y85.536 E4.97356
G1 X100.716 Y85.302 F7800.000
G1 F1800
G1 X100.588 Y84.721 E5.01331
G1 X100.588 Y84.126 E5.05306
G1 X100.716 Y83.545 E5.09281
G1 X100.965 Y83.005 E5.13256
G1 X101.326 Y82.531 E5.17231
G1 X101.779 Y82.146 E5.21207
G1 X102.305 Y81.867 E5.25182
G1 X102.878 Y81.708 E5.29157
G1 X103.444 Y81.678 E5.32945
G1 X104.058 Y81.772 E5.37093
G1 X104.612 Y81.993 E5.41078
G1 X105.105 Y82.326 E5.45054
G1 X105.514 Y82.758 E5.49029
G1 X105.821 Y83.268 E5.53004
G1 X106.011 Y83.832 E5.56979
G1 X106.075 Y84.424 E5.60954
G1 X106.011 Y85.015 E5.64929
G1 X105.821 Y85.579 E5.68905
G1 X105.514 Y86.089 E5.72880
G1 X105.105 Y86.521 E5.76855
G1 X104.612 Y86.855 E5.80830
G1 X104.059 Y87.075 E5.84805
G1 X103.472 Y87.171 E5.88780
G1 X102.878 Y87.139 E5.92756
G1 X102.305 Y86.980 E5.96731
G1 X101.779 Y86.701 E6.00706
G1 X101.347 Y86.334 E6.04494
G1 X100.966 Y85.844 E6.08642
G1 X100.744 Y85.364 E6.12177
G1 X100.274 Y85.215 F7800.000
G1 E4.12177 F2400.00000
G92 E0
G1 X114.512 Y84.838 F7800.000
G1 E2.00000 F2400.00000
G1 F1800
G1 X114.512 Y84.010 E2.05532
G1 X114.690 Y83.201 E2.11064
G1 X115.038 Y82.450 E2.16595
G1 X115.539 Y81.790 E2.22127
G1 X116.170 Y81.254 E2.27659
G1 X116.902 Y80.866 E2.33191
G1 X117.700 Y80.645 E2.38723
G1 X118.493 Y80.602 E2.44030
G1 X119.337 Y80.731 E2.49735
G1 X120.113 Y81.040 E2.55314
G1 X120.798 Y81.505 E2.60846
G1 X121.368 Y82.106 E2.66378
G1 X121.795 Y82.816 E2.71910
G1 X122.059 Y83.601 E2.77441
G1 X122.149 Y84.424 E2.82973
G1 X122.059 Y85.247 E2.88505
G1 X121.795 Y86.032 E2.94037
G1 X121.368 Y86.741 E2.99568
G1 X120.821 Y87.318 E3.04876
G1 X120.120 Y87.804 E3.10581
G1 X119.344 Y88.113 E3.16160
G1 X118.527 Y88.247 E3.21692
G1 X117.700 Y88.203 E3.27224
G1 X116.902 Y87.981 E3.32755
G1 X116.170 Y87.593 E3.38287
G1 X115.565 Y87.079 E3.43595
G1 X115.041 Y86.404 E3.49299
G1 X114.690 Y85.646 E3.54879
G1 X114.527 Y84.904 E3.59960
G1 X115.048 Y84.780 F7800.000
G1 F1800
G1 X115.048 Y84.068 E3.64713
G1 X115.201 Y83.373 E3.69467
G1 X115.500 Y82.727 E3.74220
G1 X115.930 Y82.161 E3.78973
G1 X116.473 Y81.700 E3.83727
G1 X117.101 Y81.367 E3.88480
G1 X117.787 Y81.177 E3.93234
G1 X118.467 Y81.140 E3.97782
G1 X119.196 Y81.252 E4.02708
G1 X119.861 Y81.517 E4.07490
G1 X120.450 Y81.916 E4.12244
G1 X120.939 Y82.432 E4.16997
G1 X121.306 Y83.042 E4.21751
G1 X121.533 Y83.716 E4.26504
G1 X121.610 Y84.424 E4.31258
G1 X121.533 Y85.131 E4.36011
G1 X121.306 Y85.805 E4.40765
G1 X120.939 Y86.415 E4.45518
G1 X120.471 Y86.909 E4.50066
G1 X119.865 Y87.329 E4.54992
G1 X119.200 Y87.594 E4.59775
G1 X118.497 Y87.709 E4.64528
G1 X117.787 Y87.671 E4.69282
G1 X117.101 Y87.481 E4.74035
G1 X116.473 Y87.147 E4.78789
G1 X115.954 Y86.707 E4.83336
G1 X115.502 Y86.124 E4.88263
G1 X115.201 Y85.474 E4.93045
G1 X115.063 Y84.845 E4.97348
G1 X115.584 Y84.721 F7800.000
G1 F1800
G1 X115.584 Y84.126 E5.01323
G1 X115.712 Y83.545 E5.05298
G1 X115.961 Y83.005 E5.09273
G1 X116.321 Y82.531 E5.13249
G1 X116.775 Y82.146 E5.17224
G1 X117.301 Y81.867 E5.21199
G1 X117.874 Y81.708 E5.25174
G1 X118.440 Y81.678 E5.28962
G1 X119.054 Y81.772 E5.33110
G1 X119.608 Y81.993 E5.37096
G1 X120.101 Y82.326 E5.41071
G1 X120.510 Y82.758 E5.45046
G1 X120.817 Y83.268 E5.49021
G1 X121.007 Y83.832 E5.52996
G1 X121.071 Y84.424 E5.56972
G1 X121.007 Y85.015 E5.60947
G1 X120.817 Y85.579 E5.64922
G1 X120.510 Y86.089 E5.68897
G1 X120.120 Y86.501 E5.72685
G1 X119.610 Y86.854 E5.76833
G1 X119.055 Y87.075 E5.80819
G1 X118.468 Y87.171 E5.84794
G1 X117.874 Y87.139 E5.88769
G1 X117.301 Y86.980 E5.92744
G1 X116.775 Y86.701 E5.96719
G1 X116.343 Y86.334 E6.00507
G1 X115.962 Y85.844 E6.04655
G1 X115.712 Y85.302 E6.08641
G1 X115.598 Y84.787 E6.12165
G1 X115.172 Y84.540 F7800.000
G1 E4.12165 F2400.00000
G92 E0
G1 X124.551 Y84.838 F7800.000
G1 E2.00000 F2400.00000
G1 F1800
G1 X124.551 Y84.010 E2.05532
G1 X124.729 Y83.201 E2.11063
G1 X125.076 Y82.450 E2.16595
G1 X125.577 Y81.790 E2.22127
G1 X126.208 Y81.254 E2.27659
G1 X126.940 Y80.866 E2.33191
G1 X127.738 Y80.645 E2.38722
G1 X128.531 Y80.602 E2.44030
G1 X129.375 Y80.731 E2.49735
G1 X130.151 Y81.040 E2.55314
G1 X130.836 Y81.505 E2.60846
G1 X131.406 Y82.106 E2.66378
G1 X131.833 Y82.816 E2.71909
G1 X132.097 Y83.601 E2.77441
G1 X132.187 Y84.424 E2.82973
G1 X132.097 Y85.247 E2.88505
G1 X131.833 Y86.032 E2.94037
G1 X131.406 Y86.741 E2.99568
G1 X130.860 Y87.318 E3.04876
G1 X130.158 Y87.804 E3.10581
G1 X129.382 Y88.113 E3.16160
G1 X128.565 Y88.247 E3.21692
G1 X127.738 Y88.203 E3.27224
G1 X126.940 Y87.981 E3.32755
G1 X126.208 Y87.593 E3.38287
G1 X125.603 Y87.079 E3.43594
G1 X125.079 Y86.404 E3.49299
G1 X124.729 Y85.646 E3.54879
G1 X124.565 Y84.904 E3.59960
G1 X125.086 Y84.780 F7800.000
G1 F1800
G1 X125.086 Y84.068 E3.64713
G1 X125.239 Y83.373 E3.69466
G1 X125.538 Y82.727 E3.74220
G1 X125.969 Y82.161 E3.78973
G1 X126.511 Y81.700 E3.83727
G1 X127.139 Y81.367 E3.88480
G1 X127.825 Y81.177 E3.93234
G1 X128.505 Y81.140 E3.97781
G1 X129.234 Y81.252 E4.02708
G1 X129.899 Y81.517 E4.07490
G1 X130.488 Y81.916 E4.12244
G1 X130.977 Y82.432 E4.16997
G1 X131.344 Y83.042 E4.21751
G1 X131.571 Y83.716 E4.26504
G1 X131.648 Y84.424 E4.31258
G1 X131.571 Y85.131 E4.36011
G1 X131.344 Y85.805 E4.40765
G1 X130.977 Y86.415 E4.45518
G1 X130.509 Y86.909 E4.50066
G1 X129.903 Y87.329 E4.54992
G1 X129.238 Y87.594 E4.59775
G1 X128.536 Y87.709 E4.64528
G1 X127.825 Y87.671 E4.69282
G1 X127.139 Y87.481 E4.74035
G1 X126.511 Y87.147 E4.78789
G1 X125.992 Y86.707 E4.83336
G1 X125.540 Y86.124 E4.88263
G1 X125.239 Y85.474 E4.93045
G1 X125.101 Y84.845 E4.97348
G1 X125.622 Y84.721 F7800.000
G1 F1800
G1 X125.622 Y84.126 E5.01323
G1 X125.750 Y83.545 E5.05298
G1 X126.000 Y83.005 E5.09273
G1 X126.360 Y82.531 E5.13249
G1 X126.813 Y82.146 E5.17224
G1 X127.339 Y81.867 E5.21199
G1 X127.912 Y81.708 E5.25174
G1 X128.478 Y81.678 E5.28962
G1 X129.092 Y81.772 E5.33110
G1 X129.646 Y81.993 E5.37096
G1 X130.139 Y82.326 E5.41071
G1 X130.548 Y82.758 E5.45046
G1 X130.855 Y83.268 E5.49021
G1 X131.045 Y83.832 E5.52996
G1 X131.109 Y84.424 E5.56972
G1 X131.045 Y85.015 E5.60947
G1 X130.855 Y85.579 E5.64922
G1 X130.548 Y86.089 E5.68897
G1 X130.158 Y86.501 E5.72685
