; generated by PrusaSlicer 2.0.0+win64 on 2020-02-09 at 18:09:56

; 

; external perimeters extrusion width = 0.45mm
; perimeters extrusion width = 0.45mm
; infill extrusion width = 0.45mm
; solid infill extrusion width = 0.45mm
; top infill extrusion width = 0.40mm
; first layer extrusion width = 0.60mm

M107
M190 S65 ; set bed temperature and wait for it to be reached
M104 S225 ; set temperature
G28 ; home all axes
G1 Z5 F5000 ; lift nozzle
; Filament gcode
M109 S225 ; set temperature and wait for it to be reached
G21 ; set units to millimeters
G90 ; use absolute coordinates
M82 ; use absolute distances for extrusion
G92 E0
G1 Z0.300 F7800.000
G1 E-2.00000 F2400.00000
G92 E0
G1 X77.432 Y69.906 F7800.000
G1 E2.00000 F2400.00000
G1 F1800
G1 X78.681 Y69.031 E2.10190
G1 X80.085 Y68.465 E2.20300
G1 X81.564 Y68.233 E2.30303
G1 X138.149 Y68.226 E6.08323
G1 X139.413 Y68.349 E6.16804
G1 X140.563 Y68.683 E6.24808
G1 X141.686 Y69.245 E6.33191
G1 X142.718 Y70.043 E6.41907
G1 X143.558 Y71.006 E6.50451
G1 X144.165 Y72.033 E6.58414
G1 X144.597 Y73.218 E6.66843
G1 X144.797 Y74.476 E6.75350
G1 X144.810 Y145.212 E11.47906
G1 X144.711 Y146.248 E11.54863
G1 X144.479 Y147.184 E11.61303
G1 X144.073 Y148.154 E11.68327
G1 X143.549 Y149.007 E11.75014
G1 X142.545 Y150.114 E11.85002
G1 X141.264 Y150.999 E11.95397
G1 X139.825 Y151.559 E12.05712
G1 X138.300 Y151.771 E12.16004
G1 X81.727 Y151.773 E15.93941
G1 X80.691 Y151.670 E16.00897
G1 X79.762 Y151.436 E16.07295
G1 X78.803 Y151.033 E16.14245
G1 X77.956 Y150.512 E16.20890
G1 X76.845 Y149.503 E16.30913
G1 X75.959 Y148.217 E16.41350
G1 X75.401 Y146.776 E16.51668
G1 X75.191 Y145.238 E16.62037
G1 X75.190 Y74.788 E21.32680
G1 X75.290 Y73.746 E21.39678
G1 X75.523 Y72.811 E21.46117
G1 X75.929 Y71.840 E21.53144
G1 X76.451 Y70.993 E21.59790
G1 X77.392 Y69.951 E21.69171
G1 E19.69171 F2400.00000
G92 E0
G1 X125.393 Y131.501 F7800.000
G1 E2.00000 F2400.00000
G1 F1800
G1 X96.650 Y131.501 E3.92015
G1 X96.650 Y115.259 E5.00524
G1 X125.393 Y115.259 E6.92539
G1 X125.393 Y131.441 E8.00647
G1 X124.857 Y130.966 F7800.000
G1 F1800
G1 X97.186 Y130.966 E9.85506
G1 X97.186 Y115.795 E10.86858
G1 X124.857 Y115.795 E12.71717
G1 X124.857 Y130.906 E13.72668
G1 X124.321 Y130.430 F7800.000
G1 F1800
G1 X97.721 Y130.430 E15.50370
G1 X97.721 Y116.330 E16.44566
G1 X124.321 Y116.330 E18.22268
G1 X124.321 Y130.370 E19.16063
G1 X124.463 Y130.804 F7800.000
G1 E17.16063 F2400.00000
G92 E0
G1 X91.745 Y101.428 F7800.000
G1 E2.00000 F2400.00000
G1 F1800
G1 X91.223 Y102.014 E2.05244
G1 X90.580 Y102.464 E2.10487
G1 X89.850 Y102.754 E2.15731
G1 X89.074 Y102.868 E2.20975
G1 X88.292 Y102.800 E2.26218
G1 X87.547 Y102.553 E2.31462
G1 X86.879 Y102.141 E2.36706
G1 X86.324 Y101.586 E2.41950
G1 X85.912 Y100.918 E2.47193
G1 X85.665 Y100.173 E2.52437
G1 X85.596 Y99.391 E2.57681
G1 X85.710 Y98.614 E2.62924
G1 X86.000 Y97.884 E2.68168
G1 X86.450 Y97.242 E2.73412
G1 X87.036 Y96.720 E2.78656
G1 X87.734 Y96.344 E2.83950
G1 X88.516 Y96.143 E2.89345
G1 X89.270 Y96.121 E2.94383
G1 X90.039 Y96.280 E2.99627
G1 X90.750 Y96.612 E3.04870
G1 X91.366 Y97.098 E3.10114
G1 X91.853 Y97.714 E3.15358
G1 X92.184 Y98.426 E3.20601
G1 X92.343 Y99.194 E3.25845
G1 X92.320 Y99.979 E3.31089
G1 X92.117 Y100.737 E3.36332
G1 X91.773 Y101.375 E3.41175
G1 X91.303 Y101.119 F7800.000
G1 F1800
G1 X90.864 Y101.611 E3.45582
G1 X90.324 Y101.990 E3.49990
G1 X89.711 Y102.233 E3.54397
G1 X89.058 Y102.329 E3.58804
G1 X88.401 Y102.272 E3.63211
G1 X87.775 Y102.064 E3.67619
G1 X87.213 Y101.718 E3.72026
G1 X86.747 Y101.251 E3.76433
G1 X86.400 Y100.690 E3.80840
G1 X86.193 Y100.063 E3.85248
G1 X86.135 Y99.406 E3.89655
G1 X86.231 Y98.754 E3.94062
G1 X86.474 Y98.140 E3.98469
G1 X86.853 Y97.600 E4.02876
G1 X87.346 Y97.161 E4.07284
G1 X87.930 Y96.846 E4.11722
G1 X88.591 Y96.677 E4.16280
G1 X89.223 Y96.658 E4.20501
G1 X89.869 Y96.792 E4.24909
G1 X90.467 Y97.071 E4.29316
G1 X90.984 Y97.480 E4.33723
G1 X91.394 Y97.997 E4.38130
G1 X91.672 Y98.595 E4.42538
G1 X91.806 Y99.241 E4.46945
G1 X91.787 Y99.901 E4.51352
G1 X91.616 Y100.538 E4.55759
G1 X91.331 Y101.066 E4.59766
G1 X90.861 Y100.809 F7800.000
G1 F1800
G1 X90.506 Y101.209 E4.63336
G1 X90.068 Y101.515 E4.66907
G1 X89.571 Y101.713 E4.70478
G1 X89.042 Y101.790 E4.74049
G1 X88.510 Y101.743 E4.77619
G1 X88.002 Y101.575 E4.81190
G1 X87.548 Y101.295 E4.84761
G1 X87.170 Y100.917 E4.88332
G1 X86.889 Y100.462 E4.91903
G1 X86.721 Y99.954 E4.95473
G1 X86.674 Y99.422 E4.99044
G1 X86.752 Y98.893 E5.02615
G1 X86.949 Y98.396 E5.06186
G1 X87.256 Y97.959 E5.09756
G1 X87.655 Y97.603 E5.13327
G1 X88.127 Y97.349 E5.16909
G1 X88.667 Y97.210 E5.20631
G1 X89.176 Y97.196 E5.24035
G1 X89.699 Y97.304 E5.27606
G1 X90.184 Y97.530 E5.31177
G1 X90.603 Y97.861 E5.34748
G1 X90.935 Y98.280 E5.38318
G1 X91.161 Y98.765 E5.41889
G1 X91.269 Y99.288 E5.45460
G1 X91.253 Y99.823 E5.49031
G1 X91.115 Y100.339 E5.52602
G1 X90.890 Y100.756 E5.55771
G1 X91.030 Y101.172 F7800.000
G1 E3.55771 F2400.00000
G92 E0
G1 X91.686 Y88.203 F7800.000
G1 E2.00000 F2400.00000
G1 F1800
G1 X90.888 Y87.981 E2.05532
G1 X90.157 Y87.593 E2.11064
G1 X89.551 Y87.079 E2.16371
G1 X89.028 Y86.404 E2.22076
G1 X88.677 Y85.646 E2.27655
G1 X88.499 Y84.838 E2.33187
G1 X88.499 Y84.010 E2.38719
G1 X88.677 Y83.201 E2.44251
G1 X89.025 Y82.450 E2.49782
G1 X89.526 Y81.790 E2.55314
G1 X90.157 Y81.254 E2.60846
G1 X90.888 Y80.866 E2.66378
G1 X91.686 Y80.645 E2.71909
G1 X92.479 Y80.602 E2.77217
G1 X93.324 Y80.731 E2.82922
G1 X94.099 Y81.041 E2.88501
G1 X94.785 Y81.505 E2.94033
G1 X95.354 Y82.106 E2.99565
G1 X95.781 Y82.816 E3.05096
G1 X96.046 Y83.601 E3.10628
G1 X96.135 Y84.424 E3.16160
G1 X96.046 Y85.247 E3.21692
G1 X95.781 Y86.032 E3.27224
G1 X95.354 Y86.741 E3.32755
G1 X94.785 Y87.342 E3.38287
G1 X94.099 Y87.807 E3.43819
G1 X93.330 Y88.113 E3.49351
G1 X92.513 Y88.247 E3.54883
G1 X91.746 Y88.206 E3.60014
G1 X91.773 Y87.671 F7800.000
G1 F1800
G1 X91.088 Y87.481 E3.64767
G1 X90.459 Y87.147 E3.69521
G1 X89.940 Y86.707 E3.74068
G1 X89.488 Y86.124 E3.78995
G1 X89.187 Y85.474 E3.83777
G1 X89.034 Y84.780 E3.88531
G1 X89.034 Y84.068 E3.93284
G1 X89.187 Y83.373 E3.98038
G1 X89.486 Y82.727 E4.02791
G1 X89.917 Y82.161 E4.07544
G1 X90.459 Y81.700 E4.12298
G1 X91.088 Y81.367 E4.17051
G1 X91.773 Y81.177 E4.21805
G1 X92.453 Y81.140 E4.26352
G1 X93.182 Y81.252 E4.31279
G1 X93.847 Y81.517 E4.36062
G1 X94.436 Y81.916 E4.40815
G1 X94.925 Y82.432 E4.45568
G1 X95.292 Y83.042 E4.50322
G1 X95.519 Y83.716 E4.55076
G1 X95.596 Y84.424 E4.59829
G1 X95.519 Y85.131 E4.64582
G1 X95.292 Y85.805 E4.69336
G1 X94.925 Y86.415 E4.74089
G1 X94.436 Y86.932 E4.78843
G1 X93.847 Y87.331 E4.83596
G1 X93.186 Y87.594 E4.88350
G1 X92.484 Y87.709 E4.93103
G1 X91.833 Y87.674 E4.97456
G1 X91.861 Y87.139 F7800.000
G1 F1800
G1 X91.287 Y86.980 E5.01431
G1 X90.761 Y86.701 E5.05406
G1 X90.329 Y86.334 E5.09194
G1 X89.949 Y85.844 E5.13342
G1 X89.698 Y85.302 E5.17328
G1 X89.570 Y84.721 E5.21303
G1 X89.570 Y84.126 E5.25278
G1 X89.698 Y83.545 E5.29253
G1 X89.948 Y83.005 E5.33229
G1 X90.308 Y82.531 E5.37204
G1 X90.761 Y82.146 E5.41179
G1 X91.287 Y81.867 E5.45154
G1 X91.861 Y81.708 E5.49129
G1 X92.427 Y81.678 E5.52917
G1 X93.040 Y81.772 E5.57065
G1 X93.595 Y81.993 E5.61051
G1 X94.087 Y82.326 E5.65026
G1 X94.496 Y82.758 E5.69001
G1 X94.803 Y83.268 E5.72976
G1 X94.993 Y83.832 E5.76952
G1 X95.058 Y84.424 E5.80927
G1 X94.993 Y85.015 E5.84902
G1 X94.803 Y85.579 E5.88877
G1 X94.496 Y86.089 E5.92852
G1 X94.087 Y86.521 E5.96827
G1 X93.595 Y86.855 E6.00803
G1 X93.042 Y87.075 E6.04778
G1 X92.455 Y87.171 E6.08753
G1 X91.920 Y87.143 E6.12327
G1 X91.607 Y87.449 F7800.000
G1 E4.12327 F2400.00000
G92 E0
G1 X98.694 Y85.646 F7800.000
G1 E2.00000 F2400.00000
G1 F1800
G1 X98.516 Y84.838 E2.05532
G1 X98.516 Y84.010 E2.11063
G1 X98.694 Y83.201 E2.16595
G1 X99.042 Y82.450 E2.22127
G1 X99.543 Y81.790 E2.27659
G1 X100.174 Y81.254 E2.33191
G1 X100.906 Y80.866 E2.38722
G1 X101.704 Y80.645 E2.44254
G1 X102.497 Y80.602 E2.49562
G1 X103.341 Y80.731 E2.55267
G1 X104.117 Y81.041 E2.60846
G1 X104.802 Y81.505 E2.66378
G1 X105.372 Y82.106 E2.71909
G1 X105.799 Y82.816 E2.77441
G1 X106.063 Y83.601 E2.82973
G1 X106.153 Y84.424 E2.88505
G1 X106.063 Y85.247 E2.94037
G1 X105.799 Y86.032 E2.99568
G1 X105.372 Y86.741 E3.05100
G1 X104.802 Y87.342 E3.10632
G1 X104.117 Y87.807 E3.16164
G1 X103.348 Y88.113 E3.21696
G1 X102.531 Y88.247 E3.27227
G1 X101.704 Y88.203 E3.32759
G1 X100.906 Y87.981 E3.38291
G1 X100.174 Y87.593 E3.43823
G1 X99.543 Y87.057 E3.49355
G1 X99.042 Y86.398 E3.54886
G1 X98.720 Y85.701 E3.60017
G1 X99.205 Y85.474 F7800.000
G1 F1800
G1 X99.052 Y84.780 E3.64771
G1 X99.052 Y84.068 E3.69524
G1 X99.205 Y83.373 E3.74278
G1 X99.504 Y82.727 E3.79031
G1 X99.934 Y82.161 E3.83785
G1 X100.477 Y81.700 E3.88538
G1 X101.105 Y81.367 E3.93292
G1 X101.791 Y81.177 E3.98045
G1 X102.471 Y81.140 E4.02593
G1 X103.200 Y81.252 E4.07519
G1 X103.865 Y81.517 E4.12302
G1 X104.454 Y81.916 E4.17055
G1 X104.943 Y82.432 E4.21809
G1 X105.310 Y83.042 E4.26562
G1 X105.537 Y83.716 E4.31316
G1 X105.614 Y84.424 E4.36069
G1 X105.537 Y85.131 E4.40823
G1 X105.310 Y85.805 E4.45576
G1 X104.943 Y86.415 E4.50330
G1 X104.454 Y86.932 E4.55083
G1 X103.865 Y87.331 E4.59836
G1 X103.204 Y87.594 E4.64590
G1 X102.501 Y87.709 E4.69344
G1 X101.791 Y87.671 E4.74097
G1 X101.105 Y87.481 E4.78851
G1 X100.477 Y87.147 E4.83604
G1 X99.934 Y86.687 E4.88357
G1 X99.504 Y86.120 E4.93111
G1 X99.230 Y85.529 E4.97464
G1 X99.716 Y85.302 F7800.000
G1 F1800
G1 X99.588 Y84.721 E5.01439
G1 X99.588 Y84.126 E5.05414
G1 X99.716 Y83.545 E5.09389
G1 X99.965 Y83.005 E5.13364
G1 X100.326 Y82.531 E5.17339
G1 X100.779 Y82.146 E5.21315
G1 X101.305 Y81.867 E5.25290
G1 X101.878 Y81.708 E5.29265
G1 X102.444 Y81.678 E5.33053
G1 X103.058 Y81.772 E5.37201
G1 X103.612 Y81.993 E5.41187
G1 X104.105 Y82.326 E5.45162
G1 X104.514 Y82.758 E5.49137
G1 X104.821 Y83.268 E5.53112
G1 X105.011 Y83.832 E5.57087
G1 X105.075 Y84.424 E5.61062
G1 X105.011 Y85.015 E5.65037
G1 X104.821 Y85.579 E5.69013
G1 X104.514 Y86.089 E5.72988
G1 X104.105 Y86.521 E5.76963
G1 X103.612 Y86.855 E5.80938
G1 X103.060 Y87.075 E5.84913
G1 X102.472 Y87.171 E5.88889
G1 X101.878 Y87.139 E5.92864
G1 X101.305 Y86.980 E5.96839
G1 X100.779 Y86.701 E6.00814
G1 X100.326 Y86.316 E6.04789
G1 X99.965 Y85.842 E6.08764
G1 X99.741 Y85.357 E6.12339
G1 X99.323 Y85.223 F7800.000
G1 E4.12339 F2400.00000
G92 E0
G1 X113.512 Y84.838 F7800.000
G1 E2.00000 F2400.00000
G1 F1800
G1 X113.512 Y84.010 E2.05532
G1 X113.690 Y83.201 E2.11064
G1 X114.038 Y82.450 E2.16595
G1 X114.539 Y81.790 E2.22127
G1 X115.170 Y81.254 E2.27659
G1 X115.902 Y80.866 E2.33191
G1 X116.700 Y80.645 E2.38722
G1 X117.493 Y80.602 E2.44030
G1 X118.337 Y80.731 E2.49735
G1 X119.113 Y81.041 E2.55314
G1 X119.798 Y81.505 E2.60846
G1 X120.368 Y82.106 E2.66378
G1 X120.795 Y82.816 E2.71910
G1 X121.059 Y83.601 E2.77441
G1 X121.149 Y84.424 E2.82973
G1 X121.059 Y85.247 E2.88505
G1 X120.795 Y86.032 E2.94037
G1 X120.368 Y86.741 E2.99569
G1 X119.798 Y87.342 E3.05100
G1 X119.113 Y87.807 E3.10632
G1 X118.344 Y88.113 E3.16164
G1 X117.527 Y88.247 E3.21696
G1 X116.700 Y88.203 E3.27227
G1 X115.902 Y87.981 E3.32759
G1 X115.170 Y87.593 E3.38291
G1 X114.565 Y87.079 E3.43599
G1 X114.041 Y86.404 E3.49303
G1 X113.690 Y85.646 E3.54883
G1 X113.525 Y84.896 E3.60014
G1 X114.048 Y84.780 F7800.000
G1 F1800
G1 X114.048 Y84.068 E3.64767
G1 X114.201 Y83.373 E3.69521
G1 X114.500 Y82.727 E3.74274
G1 X114.930 Y82.161 E3.79027
G1 X115.473 Y81.700 E3.83781
G1 X116.101 Y81.367 E3.88534
G1 X116.787 Y81.177 E3.93288
G1 X117.467 Y81.140 E3.97835
G1 X118.196 Y81.252 E4.02762
G1 X118.861 Y81.517 E4.07545
G1 X119.450 Y81.916 E4.12298
G1 X119.939 Y82.432 E4.17051
G1 X120.306 Y83.042 E4.21805
G1 X120.533 Y83.716 E4.26558
G1 X120.610 Y84.424 E4.31312
G1 X120.533 Y85.131 E4.36065
G1 X120.306 Y85.805 E4.40819
G1 X119.939 Y86.415 E4.45572
G1 X119.450 Y86.932 E4.50326
G1 X118.861 Y87.331 E4.55079
G1 X118.200 Y87.594 E4.59833
G1 X117.497 Y87.709 E4.64586
G1 X116.787 Y87.671 E4.69340
G1 X116.101 Y87.481 E4.74093
G1 X115.473 Y87.147 E4.78847
G1 X114.954 Y86.707 E4.83394
G1 X114.502 Y86.124 E4.88321
G1 X114.201 Y85.474 E4.93103
G1 X114.061 Y84.838 E4.97456
G1 X114.584 Y84.721 F7800.000
G1 F1800
G1 X114.584 Y84.126 E5.01431
G1 X114.712 Y83.545 E5.05406
G1 X114.961 Y83.005 E5.09382
G1 X115.321 Y82.531 E5.13357
G1 X115.775 Y82.146 E5.17332
G1 X116.301 Y81.867 E5.21307
G1 X116.874 Y81.708 E5.25282
G1 X117.440 Y81.678 E5.29070
G1 X118.054 Y81.772 E5.33218
G1 X118.608 Y81.993 E5.37204
G1 X119.101 Y82.326 E5.41179
G1 X119.510 Y82.758 E5.45154
G1 X119.817 Y83.268 E5.49129
G1 X120.007 Y83.832 E5.53105
G1 X120.071 Y84.424 E5.57080
G1 X120.007 Y85.015 E5.61055
G1 X119.817 Y85.579 E5.65030
G1 X119.510 Y86.089 E5.69005
G1 X119.101 Y86.521 E5.72980
G1 X118.608 Y86.855 E5.76956
G1 X118.055 Y87.075 E5.80931
G1 X117.468 Y87.171 E5.84906
G1 X116.874 Y87.139 E5.88881
G1 X116.301 Y86.980 E5.92856
G1 X115.775 Y86.701 E5.96831
G1 X115.343 Y86.334 E6.00619
G1 X114.962 Y85.844 E6.04767
G1 X114.712 Y85.302 E6.08753
G1 X114.597 Y84.780 E6.12327
G1 X114.218 Y84.560 F7800.000
G1 E4.12327 F2400.00000
G92 E0
G1 X123.551 Y84.838 F7800.000
G1 E2.00000 F2400.00000
G1 F1800
G1 X123.551 Y84.010 E2.05532
G1 X123.729 Y83.201 E2.11064
G1 X124.076 Y82.450 E2.16595
G1 X124.577 Y81.790 E2.22127
G1 X125.208 Y81.254 E2.27659
G1 X125.940 Y80.866 E2.33191
G1 X126.738 Y80.645 E2.38722
G1 X127.531 Y80.602 E2.44030
G1 X128.375 Y80.731 E2.49735
G1 X129.151 Y81.041 E2.55314
G1 X129.836 Y81.505 E2.60846
G1 X130.406 Y82.106 E2.66378
G1 X130.833 Y82.816 E2.71910
G1 X131.097 Y83.601 E2.77441
G1 X131.187 Y84.424 E2.82973
G1 X131.097 Y85.247 E2.88505
G1 X130.833 Y86.032 E2.94037
G1 X130.406 Y86.741 E2.99569
G1 X129.836 Y87.342 E3.05100
G1 X129.151 Y87.807 E3.10632
G1 X128.382 Y88.113 E3.16164
G1 X127.565 Y88.247 E3.21696
G1 X126.738 Y88.203 E3.27227
G1 X125.940 Y87.981 E3.32759
G1 X125.208 Y87.593 E3.38291
G1 X124.577 Y87.057 E3.43823
G1 X124.076 Y86.398 E3.49355
G1 X123.729 Y85.646 E3.54886
G1 X123.563 Y84.896 E3.60017
G1 X124.086 Y84.780 F7800.000
G1 F1800
G1 X124.086 Y84.068 E3.64771
G1 X124.239 Y83.373 E3.69524
G1 X124.538 Y82.727 E3.74278
G1 X124.969 Y82.161 E3.79031
G1 X125.511 Y81.700 E3.83785
G1 X126.139 Y81.367 E3.88538
G1 X126.825 Y81.177 E3.93292
G1 X127.505 Y81.140 E3.97839
G1 X128.234 Y81.252 E4.02766
G1 X128.899 Y81.517 E4.07548
G1 X129.488 Y81.916 E4.12302
G1 X129.977 Y82.432 E4.17055
G1 X130.344 Y83.042 E4.21809
G1 X130.571 Y83.716 E4.26562
G1 X130.648 Y84.424 E4.31316
G1 X130.571 Y85.131 E4.36069
G1 X130.344 Y85.805 E4.40823
G1 X129.977 Y86.415 E4.45576
G1 X129.488 Y86.932 E4.50330
G1 X128.899 Y87.331 E4.55083
G1 X128.238 Y87.594 E4.59837
G1 X127.536 Y87.709 E4.64590
G1 X126.825 Y87.671 E4.69344
G1 X126.139 Y87.481 E4.74097
G1 X125.511 Y87.147 E4.78851
G1 X124.969 Y86.687 E4.83604
G1 X124.538 Y86.120 E4.88358
G1 X124.239 Y85.474 E4.93111
G1 X124.099 Y84.838 E4.97464
G1 X124.622 Y84.721 F7800.000
G1 F1800
G1 X124.622 Y84.126 E5.01439
G1 X124.750 Y83.545 E5.05414
G1 X125.000 Y83.005 E5.09389
G1 X125.360 Y82.531 E5.13364
G1 X125.813 Y82.146 E5.17340
G1 X126.339 Y81.867 E5.21315
G1 X126.912 Y81.708 E5.25290
G1 X127.478 Y81.678 E5.29078
G1 X128.092 Y81.772 E5.33226
G1 X128.646 Y81.993 E5.37212
G1 X129.139 Y82.326 E5.41187
G1 X129.548 Y82.758 E5.45162
G1 X129.855 Y83.268 E5.49137
G1 X130.045 Y83.832 E5.53112
G1 X130.109 Y84.424 E5.57087
G1 X130.045 Y85.015 E5.61063
G1 X129.855 Y85.579 E5.65038
G1 X129.548 Y86.089 E5.69013
G1 X129.139 Y86.521 E5.72988
G1 X128.646 Y86.855 E5.76963
G1 X128.094 Y87.075 E5.80938
G1 X127.506 Y87.171 E5.84914
